Numix-Light/16/status/indicator-keyboard-It.svg

<?xml version="1.0" encoding="UTF-8" standalone="no"?>
<svg
   xmlns:dc="http://purl.org/dc/elements/1.1/"
   xmlns:cc="http://creativecommons.org/ns#"
   xmlns:rdf="http://www.w3.org/1999/02/22-rdf-syntax-ns#"
   xmlns:svg="http://www.w3.org/2000/svg"
   xmlns="http://www.w3.org/2000/svg"
   xmlns:sodipodi="http://sodipodi.sourceforge.net/DTD/sodipodi-0.dtd"
   xmlns:inkscape="http://www.inkscape.org/namespaces/inkscape"
   viewBox="0 0 16 16"
   id="svg2"
   version="1.1"
   inkscape:version="0.91 r13725"
   sodipodi:docname="indicator-keyboard-It.svg">
  <metadata
     id="metadata13">
    <rdf:RDF>
      <cc:Work
         rdf:about="">
        <dc:format>image/svg+xml</dc:format>
        <dc:type
           rdf:resource="http://purl.org/dc/dcmitype/StillImage" />
      </cc:Work>
    </rdf:RDF>
  </metadata>
  <defs
     id="defs11" />
  <sodipodi:namedview
     pagecolor="#ffffff"
     bordercolor="#666666"
     borderopacity="1"
     objecttolerance="10"
     gridtolerance="10"
     guidetolerance="10"
     inkscape:pageopacity="0"
     inkscape:pageshadow="2"
     inkscape:window-width="640"
     inkscape:window-height="480"
     id="namedview9"
     showgrid="false"
     inkscape:zoom="14.75"
     inkscape:cx="8"
     inkscape:cy="8"
     inkscape:window-x="65"
     inkscape:window-y="24"
     inkscape:window-maximized="0"
     inkscape:current-layer="svg2" />
  <path
     style="fill:#353535;fill-opacity:1"
     d="M 1.5996094 0 C 0.71320937 2.9605947e-16 0 0.71320937 0 1.5996094 L 0 14.400391 C 2.9605947e-16 15.286791 0.71320937 16 1.5996094 16 L 14.400391 16 C 15.286791 16 16 15.286791 16 14.400391 L 16 1.5996094 C 16 0.71320937 15.286791 0 14.400391 0 L 1.5996094 0 z M 5.6015625 4.8320312 L 6.2128906 4.8320312 L 6.2128906 11.068359 L 5.6015625 11.068359 L 5.6015625 4.8320312 z M 8.3476562 4.9394531 L 8.3476562 6.4160156 L 10.201172 6.4160156 L 10.201172 6.9101562 L 8.3476562 6.9101562 L 8.3476562 9.3867188 C 8.3476562 9.6507187 8.3681563 9.8652033 8.4101562 10.033203 C 8.4581563 10.195203 8.5234219 10.322109 8.6074219 10.412109 C 8.6914219 10.502109 8.7940625 10.561797 8.9140625 10.591797 C 9.0340625 10.621797 9.1665469 10.636719 9.3105469 10.636719 C 9.5565469 10.636719 9.7542969 10.610641 9.9042969 10.556641 C 10.054297 10.496641 10.169906 10.442531 10.253906 10.394531 L 10.398438 10.880859 C 10.314438 10.934859 10.167031 10.996359 9.9570312 11.068359 C 9.7470313 11.134359 9.5194375 11.167969 9.2734375 11.167969 C 8.9854375 11.167969 8.7429219 11.132547 8.5449219 11.060547 C 8.3529219 10.982547 8.1961719 10.86875 8.0761719 10.71875 C 7.9621719 10.56275 7.8819844 10.370578 7.8339844 10.142578 C 7.7859844 9.9145783 7.7617188 9.6440312 7.7617188 9.3320312 L 7.7617188 5.0488281 L 8.3476562 4.9394531 z "
     id="path4" />
</svg>

<svg xmlns="http://www.w3.org/2000/svg" viewBox="0 0 16 16">
 <path d="m 1.6 0 c -0.886 0 -1.6 0.713 -1.6 1.6 l 0 12.801 c 0 0.886 0.713 1.6 1.6 1.6 l 12.801 0 c 0.886 0 1.6 -0.713 1.6 -1.6 l 0 -12.801 c 0 -0.886 -0.713 -1.6 -1.6 -1.6 l -12.801 0 z m 4 4.832 l 0.611 0 l 0 6.236 l -0.611 0 l 0 -6.236 z m 2.746 0.107 l 0 1.477 l 1.854 0 l 0 0.494 l -1.854 0 l 0 2.477 c 0 0.264 0.021 0.478 0.063 0.646 c 0.048 0.162 0.113 0.289 0.197 0.379 c 0.084 0.09 0.187 0.15 0.307 0.18 c 0.12 0.03 0.252 0.045 0.396 0.045 c 0.246 0 0.444 -0.026 0.594 -0.08 c 0.15 -0.06 0.266 -0.114 0.35 -0.162 l 0.145 0.486 c -0.084 0.054 -0.231 0.116 -0.441 0.188 c -0.21 0.066 -0.438 0.1 -0.684 0.1 c -0.288 0 -0.531 -0.035 -0.729 -0.107 c -0.192 -0.078 -0.349 -0.192 -0.469 -0.342 c -0.114 -0.156 -0.194 -0.348 -0.242 -0.576 c -0.048 -0.228 -0.072 -0.499 -0.072 -0.811 l 0 -4.283 l 0.586 -0.109 z" style="fill:#353535;fill-opacity:1"/>
</svg>
